X: 1
T:\'Ecossaisen
C:Ludwig van Beethoven
R:Ecossaise
Z:Transcribed by Frank Nordberg - http://www.musicaviva.com
%http://www.musicaviva.com/beethoven-ludwig-van.abc
V:1 Program 1 0 %Piano
V:2 Program 1 0 bass %Piano
M: 2/4
L: 1/8
Q:1/4=170
K:Eb
V:1
"^Leicht und lebhaft"GB[B2G2]|[cG]B[B2G2]|[eG]B[B2G2]|[cG]B[B2G2]|[FD]B[B2D2]|[GE]B[B2E2]|[AF]B[B2F2]|B[af][a2f2]|
V:2
E,2[B,2G,2]|E,2[B,2G,2]|E,2[B,2G,2]|E,2[B,2G,2]|B,,2[B,2F,2]|B,,2[B,2G,2]|B,,2[B,2A,2]|B,,2[D2B,2]|
%
V:1
GB[B2G2]|[cG]B[B2G2]|[eG]B[B2G2]|[cG]B[B2G2]|[FD]B[B2D2]|[GE]B[B2G2]|[AF]B[B2F2]|[FD]B[B2D2]|
V:2
E,2[B,2G,2]|E,2[B,2G,2]|E,2[B,2G,2]|E,2[B,2G,2]|B,,2[B,2F,2]|B,,2[B,2G,2]|B,,2[B,2A,2]|B,,2B,2|
%
V:1
E2[d2D2]|C[cE][c2E2]|E2[B2B,2]|Ee[e2G2]|F2[f2A2]|Gg[g2B2]|Aafd|egeB|
V:2
G,,2G,,,2|A,,,2A,,2|B,,2B,,,2|C,,2C,2|D,2D,,2|E,,2E,2|B,,2B,,,2|E,,2E,2|
%
V:1
G2[B2B,2]|Cc[c2E2]|D2[d2F2]|Ee[e2G2]|F2[f2A2]|Gg[g2B2]|Aafd|e2z2||
V:2
[E,2E,,2][G,2G,,2]|A,,2[A,2C,2]|B,,2[B,2F,2]|C,2[C2G,2]|D,2[D2B,2]|E,2[E2B,2]|B,,2B,2|E,2E,,2||
%
V:1
bgeB|G2z2|bgeB|G2z2|(5:4:5b/c'/b/a/b/ c'b|agfe|bafd|BAFD|
V:2
E,2[B,2G,2]|E,2[B,2G,2]|E,2[B,2G,2]|E,2[B,2G,2]|E,2[B,2G,2]|E,2[B,2G,2]|B,,2[B,2F,2]|B,,2[B,2F,2]|
%
V:1
bgeB|G2z2|bgeB|G2z2|(5:4:5b/c'/b/a/b/ c'b|abfb|dbBb|AbFb|
V:2
E,2[B,2G,2]|E,2[B,2G,2]|E,2[B,2G,2]|E,2[B,2G,2]|E,2[B,2G,2]|[F,2B,,2][B,2A,2F,2]|B,,2[B,2F,2]|B,,2[B,2F,2]|
%
V:1
E2[B2B,2]|Cc[c2E2]|D2[d2F2]|Ee[e2G2]|F2[f2A2]|Gg[g2B2]|Aafd|egeB|
V:2
G,,2G,,,2|A,,,2A,,2|B,,2B,,,2|C,,2C,2|D,2D,,2|E,,2E,2|B,,2B,,,2|E,,2E,2|
%
V:1
G2[B2B,2]|Cc[c2E2]|D2[d2F2]|Ee[e2G2]|F2[f2A2]|Gg[g2B2]|Aafd|e2z2||
V:2
[E,2E,,2][G,2G,,2]|A,,2[A,2C,2]|B,,2[B,2F,2]|C,2[C2G,2]|D,2[D2B,2]|E,2[E2B,2]|B,,2B,2|E,2E,,2||
%
V:1
[e2B2G2E2][dB][cA]|[B2G2][B2G2]|[cA][BG][cA][=A^F]|[B2=G2][B2G2]|[_A2F2][af][ge]|[f2d2][fd][ec]|[d2B2][dB][cA]|[B2G2][A2F2]|
V:2
E,,2[G,2E,2]|E,,2[G,2E,2]|E,,2[A,2E,2]|E,,2[G,2E,2]|B,,,2[D,2B,,2]|B,,,2[D,2B,,2]|B,,,2[D,2B,,2]|B,,,2[D,2B,,2]|
%
V:1
[e2B2G2E2][dB][cA]|[B2G2][B2G2]|[cA][BG][cA][=A^F]|[B4=G4]|[_A2F2][c'a][bg]|[af][ge][fd][ec]|[d2B2][c2A2]|[B2G2][A2F2]|
V:2
E,,2[G,2E,2]|E,,2[G,2E,2]|E,,2[A,2E,2]|E,,2[G,2E,2]|B,,,2[D,2B,,2]|B,,,2[D,2B,,2]|B,,,2B,,2|B,,,2B,,2|
%
V:1
E2[B2B,2]|Cc[c2C2]|D2[d2F2]|Ee[e2G2]|F2[f2A2]|Gg[g2B2]|Aafd|egeB|
V:2
G,,2G,,,2|A,,,2A,,2|B,,2B,,,2|C,,2C,2|D,2D,,2|E,,2E,2|B,,2B,,,2|E,,2E,2|
%
V:1
G2[B2B,2]|Cc[c2E2]|D2[d2F2]|Ee[e2G2]|F2[f2A2]|Gg[g2B2]|Aafd|e2z2||
V:2
[E,2E,,2][G,2G,,2]|A,,2[A,2C,2]|B,,2[B,2F,2]|C,2[C2G,2]|D,2[D2B,2]|E,2[E2B,2]|B,,2B,2|E,2E,,2||
%
V:1
z B, EG|B2A2|z F Ad|f2e2|z B, EG|B2A2|z a fd|egeB|
V:2
G,,2G,2|F,,2F,2|B,,,2B,,2|E,,2E,2|G,,2G,2|F,,2F,2|B,,,2B,,2|E,,2E,2|
%
V:1
z B, EG|B2A2|z F Ad|f2e2|z B, EG|B2A2|z a fd|egeB|
V:2
G,,2G,2|F,,2F,2|B,,,2B,,2|E,,2E,2|G,,2G,2|F,,2F,2|B,,,2B,,2|E,,2E,2|
%
V:1
E2[B2B,2]|Cc[c2E2]|D2[d2G2]|Ee[e2G2]|F2[f2A2]|Gg[g2B2]|Aafd|egeB|
V:2
G,,2G,,,2|A,,,2A,,2|B,,2B,,,2|C,,2C,2|D,2D,,2|E,,2E,2|B,,2B,,,2|E,,2E,2|
%
V:1
G2[B2B,2]|Cc[c2E2]|D2[d2F2]|Ee[e2G2]|F2[f2A2]|Gg[g2B2]|Aafd|e2z2||
V:2
[E,2E,,2][G,2G,,2]|A,,2[A,2C,2]|B,,2[B,2F,2]|C,2[C2G,2]|D,2[D2B,2]|E,2[E2B,2]|B,,2B,2|E,2E,,2||
%
V:1
[g2B2][gB][fA]|[e4G4]|[E2G,2][EG,][FB,]|[G2E2]z2|z2[af][ge]|[f4d4]|[FD][GE][AF][BG]|[c4A4]|
V:2
E,2[B,2G,2]|E,2[B,2G,2]|E,,2[G,2E,2]|E,,2[G,2E,2]|B,,,2[D,2B,,2]|B,,,2[D,2B,,2]|B,,,2[D,2B,,2]|B,,,2[D,2B,,2]|
%
V:1
[B2G2][gB][fA]|[e4G4]|[E2G,2][EG,][FB,]|[G4E4]|z2[af][ge]|[f4d4]|[FD][GE][AF][BG]|[c4A4]|
V:2
E,,2[G,2E,2]|E,,2[G,2E,2]|E,,2[G,2E,2]|E,,2[G,2E,2]|B,,,2[D,2B,,2]|B,,,2[D,2B,,2]|B,,,2[D,2B,,2]|B,,,2[D,2B,,2]|
%
V:1
[B2G2][B2B,2]|Cc[c2E2]|D2[d2F2]|Ee[e2G2]|F2[f2A2]|Gg[g2B2]|Aafd|egeB|
V:2
G,,2G,,,2|A,,,2A,,2|B,,2B,,,2|C,,2C,2|D,2D,,2|E,,2E,2|B,,2B,,,2|E,,2E,2|
%
V:1
G2[B2B,2]|Cc[c2E2]|D2[d2F2]|Ee[e2G2]|F2[f2A2]|Gg[g2B2]|Aafd|e2z2|
V:2
E,2[G,2G,,2]|A,,2[A,2C,2]|B,,2[B,2F,2]|C,2[C2G,2]|D,2[D2B,2]|E,2[E2B,2]|B,,2B,2|E,2E,,2||
%
V:1
[BG](3c/B/=A/ Be|[G4E4]|e(3f/e/d/ eg|[B4G4]|BGcB|AGFE|DEFG|ABcd|
V:2
E,,2[G,2E,2]|E,,2[G,2E,2]|E,,2[G,2E,2]|E,,2[G,2E,2]|G,E,A,G,|CB,A,G,|F,G,A,B,|CG,A,F,|
%
V:1
e(3f/e/d/ eg|[B4G4]|B(3c/B/=A/ Be|[G4E4]|BGcB|AGFE|DEFE|DCB,A,|
V:2
E,,2[G,2E,2]|E,,2[G,2E,2]|E,,2[G,2E,2]|E,,2[G,2E,2]|G,E,A,G,|F,E,D,C,|B,,C,D,D,|B,,A,,G,,F,,|
%
V:1
G,2[B2B,2]|Cc[c2E2]|D2[d2F2]|Ee[e2G2]|F2[f2A2]|Gg[g2B2]|Aafd|egeB|
V:2
E,,2G,,,2|A,,,2A,,2|B,,2B,,,2|C,,2C,2|D,2D,,2|E,,2E,2|B,,2B,,,2|E,,2E,2|
%
V:1
G2[B2B,2]|Cc[c2E2]|D2[d2F2]|Ee[e2G2]|F2[f2A2]|Gg[g2B2]|Aafd|e2z2||
V:2
[E,2E,,2][G,2G,,2]|A,,2[A,2C,2]|B,,2[B,2F,2]|C,2[C2G,2]|D,2[D2B,2]|E,2[E2B,2]|B,,2B,2|E,2E,,2||
%
V:1
gb[b2g2]|[c'g]b[b2g2]|[e'g]b[b2g2]|[c'g]b[b2g2]|[fd]b[b2d2]|[ge]b[b2d2]|[af]b[b2f2]|b[a'f'][a'2f'2]|
V:2
E2[B2G2]|E2[B2G2]|E2[B2G2]|E2[B2G2]|B,2[B2F2]|B,2[B2G2]|B,2[B2A2]|B,2[d2B2]|
%
V:1
gb[b2g2]|[c'g]b[b2g2]|[e'g]b[b2g2]|[c'g]b[b2g2]|[fd]b[b2d2]|[ge]b[b2e2]|[af]b[b2f2]|[fd]b[b2d2]|
V:2
E2[B2G2]|E2[B2G2]|E2[B2G2]|E2[B2G2]|B,2[B2F2]|B,2[B2G2]|B,2[B2A2]|B,2B2|
%
V:1
e2[b2B2]|cc'[c'2e2]|d2[d'2f2]|ee'[e'2g2]|f2[f'2a2]|gg'[g'2b2]|aa'f'd'|e'g'e'b|
V:2
G2G,2|A,2A2|B2B,2|C2c2|d2D2|E2e2|B2B,2|E2z2|
%
V:1
g2[b2B2]|cc'[c'2e2]|d2[d'2f2]|ee'[e'2g2]|d2[f'2a2]|gg'[g'2b2]|aa'f'd'|e'2z2||
V:2
[E2E,2][G2G,2]|A,2[A2C2]|B,2[B2F2]|C2[c2G2]|D2[d2B2]|E2[e2B2]|B,2B2|E2z2||
%
V:1
E2[B2B,2]|Cc[c2E2]|D2[d2F2]|Ee[e2G2]|F2[f2A2]|Gg[g2B2]|Aafd|egeB|
V:2
G,,2G,,,2|A,,,2A,,2|B,,2B,,,2|C,,2C,2|D,2D,,2|E,,2E,2|B,,2B,,,2|E,,2E,2|
%
V:1
G2[B2E2B,2]|Cc[c2E2C2]|D2[d2G2D2]|Ee[e2G2E2]|F2[f2A2F2]|Gg[g2B2G2]|dafd|
V:2
[E,2E,,2][G,2E,2G,,2]|[A,,2A,,,2][A,2E,2A,,2]|[B,,2B,,,2][B,2F,2B,,2]|[C,2C,,2][C2G,2C,2]|[D,2D,,2][D2B,2D,2]|[E,2E,,2][E2B,2E,2]|[A2F2B,2][A2F2B,2]|
%
V:1
eBGE|DAFD|EB,G,E,|D,A,F,D,|E,B,,G,,z|z4|z4|]
V:2
[G2E2]z2|[A,2F,2B,,2][A,2F,2B,,2]|[G,2E,2]z2|B,,,2B,,,2|E,,2zE,,|B,,,E,,B,,,G,,,|E,,,2z2|]
